tools/download-figma-icons/icons/outlined-medium/accessability.svg

<svg width="24" height="24" viewBox="0 0 24 24" fill="none" xmlns="http://www.w3.org/2000/svg">
<path d="M18.5126 6.78882C18.9055 6.65786 19.33 6.86988 19.4611 7.2627C19.592 7.65558 19.38 8.08011 18.9872 8.21118L12.7499 10.2898V14.0728L16.0458 20.6646L16.0766 20.7349C16.2114 21.0903 16.0577 21.4972 15.7103 21.6709C15.363 21.8446 14.9456 21.7232 14.7421 21.4021L14.704 21.3354L11.9999 15.9272L9.29579 21.3354C9.11055 21.7059 8.65993 21.8561 8.28944 21.6709C7.91896 21.4857 7.76875 21.035 7.954 20.6646L11.2499 14.0728V10.2898L5.01259 8.21118L4.94154 8.18335C4.59478 8.02738 4.41589 7.63116 4.53871 7.2627C4.6616 6.89442 5.04235 6.6844 5.41322 6.76758L5.4872 6.78882L11.9999 8.95972L18.5126 6.78882ZM13.8749 4.125C13.8749 5.16053 13.0354 6 11.9999 6C10.9644 6 10.1249 5.16053 10.1249 4.125C10.1249 3.08947 10.9644 2.25 11.9999 2.25C13.0354 2.25 13.8749 3.08947 13.8749 4.125Z" fill="#1F1F1F"/>
</svg>

<svg xmlns="http://www.w3.org/2000/svg" width="24" height="24" fill="none" viewBox="0 0 24 24"><path fill="currentColor" d="M18.513 6.789a.75.75 0 0 1 .474 1.422L12.75 10.29v3.783l3.296 6.592.03.07a.75.75 0 0 1-1.334.667l-.038-.067L12 15.927l-2.704 5.408a.75.75 0 0 1-1.342-.67l3.296-6.592V10.29L5.013 8.21l-.071-.028a.75.75 0 0 1 .471-1.415l.074.02L12 8.96zm-4.638-2.664a1.875 1.875 0 1 1-3.75 0 1.875 1.875 0 0 1 3.75 0"/></svg>
